X: 13
T:Ceilidh House Polka (1)
M:2/4
L:1/8
S:Willie Coyle, Kirkubbin, Down (Accordian)
R:Polka
D:Session tape, Bangor, Down 198?
Z:Bernie Stocks
K:G
G(2AGED | GBd2 | edBG | (4ABAG ED | G(2AGED | GBd2 | edBG  | AGG2 ::\
d2d(2Bd | edBG | A2A(2Bd | edBG | d2d(2Bd | edBG | A(2Bc BA | G4 :|
<end>
<start>
